packages/tokens/icons/open/size32Px.svg

<svg viewBox="0 0 32 32" fill="none" xmlns="http://www.w3.org/2000/svg" width="1em" height="1em"><path d="M14 4.5L6.5 4.5C5.39543 4.5 4.5 5.39543 4.5 6.5L4.5 25.5C4.5 26.6046 5.39543 27.5 6.5 27.5H25.5C26.6046 27.5 27.5 26.6046 27.5 25.5V18.5" stroke="currentColor" stroke-linecap="round" stroke-linejoin="round"/><path d="M16 16.0001L27.0506 4.94943M18.443 4.51907L27.481 4.51904V13.557" stroke="currentColor" stroke-linecap="round" stroke-linejoin="round"/></svg>

<svg xmlns="http://www.w3.org/2000/svg" fill="none" viewBox="0 0 32 32" width="1em" height="1em"><path stroke="currentColor" stroke-linecap="round" stroke-linejoin="round" d="M14 4.5H6.5a2 2 0 0 0-2 2v19a2 2 0 0 0 2 2h19a2 2 0 0 0 2-2v-7M16 16 27.05 4.95m-8.607-.43 9.038-.001v9.038"/></svg>
